X:250
T:score51
L:1/8
Q:1/4=96
M:3/8
I:linebreak $
K:Ab
 z .B, .C |[M:6/8] (D>C).B, .B,.G.F | (F2 =E) z .B,.C | (D>C).B, .B,.G.F |$ (F2 =E) z (Cc | %5
 c'2 a2 .g) z/(f/ | e2 d2 .c) z/B/ | e3 G3 |[M:3/8] A3 |] %9
